X: 5
T: Speed The Plough
R: reel
M: 4/4
L: 1/8
K: Dmaj
|:d3A BAFB|A2 FA EADE|FA A2 GB B2|ABde f3e|
dcdA BAFB|A2 FA EADE|FA A2 GB B2| 1ABde fddc:|2ABde fdde|
|:faaf afdf|(3gfe fd edBd|faaf afdB|ABde fdde|
faaf afdf|(3gfe fd edBA|FA A2 GB B2|1ABde fdde:|2ABde f3e||


Tune 901	Setting 14086

